X: 5
T: Balance The Straw
Z: ceolachan
S: https://thesession.org/tunes/13387#setting23548
R: reel
M: 4/4
L: 1/8
K: Gmaj
|: dc |B2 BB BdcB | A2 AA A2 Bc | d2 cB c2 BA | G2 GG G2 :|
gf |e2 dd d2 cB | c2 BB B2 gf | e2 dd d2 cB | AGAB D2 dc |
B2 BB BgdB | A2 AA ABcd | egdB A/B/c BA | G2 GG G2 |]
